X:203
T:Jamaica Farewell
M:4/4
L:1/8
Q:120
K:G
d2d | G2 G B2 B2 B | A2 A c2 c2 c | F2 F A2 A2 A |G2 G B2 d2 d |
G2 G B2 B2 B |A2 A c2 c2 c | B2 BB A2 AA | G2 G G2 ||:
G B d | d2 d d2 d2 d | e2 f g2 gfe | d2 dd c2 cc | B2 c d2 GBd |
d2 d d2 d2  d | e2 f g2 gfe | d2 dd c2 cc | B2 A G2 :||
